X:2
T:Coming Through the Canebrake
M:C|
L:1/8
R:reel
K:D
(vdB \
|: AB) ud2 f3f | g2 G4 (vdB | A)Bcd e2c2 | defg a2dB |
  AB d2 f3f | g2 G4 dB | ABcd e2c2 |\
  [1 d3c d2dB :|[2 d2c d2(fg ||
|: a2)a2 abag | f2f2 fgaf | e2c2 efe2 | defg a2 (fg |
  a2)a2 abag | f2f2 fgaf | e2c2 efe2 | df3 d2-f2 :|
N:www.youtube.com/watchv=ceUIkamnEUo
N:("Coming Through the Canebreak" played by Mel Durham) 4/07
N:Transcription by Missy West with mods by Rick Johnson 4/7/2007
N:abc by Peter Ostapenko 4/12/2007
N:D Major
